svg/compute-engine.svg

<?xml version="1.0" encoding="UTF-8"?>
<svg xmlns="http://www.w3.org/2000/svg" xmlns:xlink="http://www.w3.org/1999/xlink" width="32" height="32" viewBox="0 0 32 32">
<path fill-rule="nonzero" fill="rgb(68.235294%, 79.607843%, 98.039216%)" fill-opacity="1" d="M 12 12 L 20 12 L 20 20 L 12 20 Z M 12 12 "/>
<path fill-rule="nonzero" fill="rgb(40%, 61.568627%, 96.470588%)" fill-opacity="1" d="M 14.667969 2.667969 L 17.332031 2.667969 L 17.332031 8 L 14.667969 8 Z M 9.332031 2.667969 L 12 2.667969 L 12 8 L 9.332031 8 Z M 20 2.667969 L 22.667969 2.667969 L 22.667969 8 L 20 8 Z M 20 2.667969 "/>
<path fill-rule="nonzero" fill="rgb(25.882353%, 52.156863%, 95.686275%)" fill-opacity="1" d="M 14.667969 24 L 17.332031 24 L 17.332031 29.332031 L 14.667969 29.332031 Z M 9.332031 24 L 12 24 L 12 29.332031 L 9.332031 29.332031 Z M 20 24 L 22.667969 24 L 22.667969 29.332031 L 20 29.332031 Z M 24 17.332031 L 24 14.667969 L 29.332031 14.667969 L 29.332031 17.332031 Z M 24 22.667969 L 24 20 L 29.332031 20 L 29.332031 22.667969 Z M 24 12 L 24 9.332031 L 29.332031 9.332031 L 29.332031 12 Z M 24 12 "/>
<path fill-rule="nonzero" fill="rgb(40%, 61.568627%, 96.470588%)" fill-opacity="1" d="M 2.667969 17.332031 L 2.667969 14.667969 L 8 14.667969 L 8 17.332031 Z M 2.667969 22.667969 L 2.667969 20 L 8 20 L 8 22.667969 Z M 2.667969 12 L 2.667969 9.332031 L 8 9.332031 L 8 12 Z M 2.667969 12 "/>
<path fill-rule="nonzero" fill="rgb(68.235294%, 79.607843%, 98.039216%)" fill-opacity="1" d="M 6.667969 6.667969 L 6.667969 25.332031 L 25.332031 25.332031 L 25.332031 6.667969 Z M 22.667969 22.667969 L 9.332031 22.667969 L 9.332031 9.332031 L 22.667969 9.332031 Z M 22.667969 22.667969 "/>
<path fill-rule="nonzero" fill="rgb(40%, 61.568627%, 96.470588%)" fill-opacity="1" d="M 12 20 L 20 20 L 16 16 Z M 12 20 "/>
<path fill-rule="nonzero" fill="rgb(25.882353%, 52.156863%, 95.686275%)" fill-opacity="1" d="M 16 16 L 20 20 L 20 12 Z M 16 16 "/>
</svg>

<svg role="img" viewBox="0 0 32 32" height="32" width="32" xmlns="http://www.w3.org/2000/svg"><path d="M12 12h8v8h-8Zm0 0" fill="rgb(68.235294%, 79.607843%, 98.039216%)"/><path d="M14.668 2.668h2.664V8h-2.664Zm-5.336 0H12V8H9.332Zm10.668 0h2.668V8H20Zm0 0" fill="rgb(40%, 61.568627%, 96.470588%)"/><path d="M14.668 24h2.664v5.332h-2.664Zm-5.336 0H12v5.332H9.332ZM20 24h2.668v5.332H20Zm4-6.668v-2.664h5.332v2.664Zm0 5.336V20h5.332v2.668ZM24 12V9.332h5.332V12Zm0 0" fill="rgb(25.882353%, 52.156863%, 95.686275%)"/><path d="M2.668 17.332v-2.664H8v2.664Zm0 5.336V20H8v2.668Zm0-10.668V9.332H8V12Zm0 0" fill="rgb(40%, 61.568627%, 96.470588%)"/><path d="M6.668 6.668v18.664h18.664V6.668Zm16 16H9.332V9.332h13.336Zm0 0" fill="rgb(68.235294%, 79.607843%, 98.039216%)"/><path d="M12 20h8l-4-4Zm0 0" fill="rgb(40%, 61.568627%, 96.470588%)"/><path d="m16 16 4 4v-8Zm0 0" fill="rgb(25.882353%, 52.156863%, 95.686275%)"/></svg>
